_includes/icons/ios-faq.svg

<svg fill="#666" height="50" viewBox="0 0 50 50" width="50" xmlns="http://www.w3.org/2000/svg"><path d="m22 0c-2.210937 0-4 1.789063-4 4v16c0 2.210938 1.789063 4 4 4h15.625l7.71875 6.75c.296875.257813.710938.316406 1.070313.15625.355468-.160156.585937-.515625.585937-.90625v-6.1875c1.714844-.449219 3-1.957031 3-3.8125v-16c0-2.210937-1.789062-4-4-4zm0 2h24c1.191406 0 2 .808594 2 2v16c0 1.191406-.808594 2-2 2-.550781 0-1 .449219-1 1v4.8125l-6.34375-5.5625c-.179687-.160156-.414062-.25-.65625-.25h-16c-1.191406 0-2-.808594-2-2v-16c0-1.191406.808594-2 2-2zm11 4.09375-2.5 11.5h1.8125l.59375-3h2.1875l.59375 3h1.8125l-2.40625-11.5zm1 1.90625h.09375c.101563.800781.207031 1.894531.40625 2.59375l.5 2.59375h-1.90625l.5-2.59375c.101563-.699219.304688-1.792969.40625-2.59375zm-30 11c-2.210937 0-4 1.789063-4 4v16c0 1.855469 1.285156 3.363281 3 3.8125v6.1875c0 .390625.230469.746094.585938.90625.359375.160156.773437.101563 1.070312-.15625l7.71875-6.75h15.625c2.210938 0 4-1.789062 4-4v-14h-2v14c0 1.191406-.808594 2-2 2h-16c-.242187 0-.476562.089844-.65625.25l-6.34375 5.5625v-4.8125c0-.550781-.449219-1-1-1-1.191406 0-2-.808594-2-2v-16c0-1.191406.808594-2 2-2h13v-2zm11.59375 6c-2.300781 0-3.59375 2.414063-3.59375 5.8125 0 3.898438 1.304688 5.875 3.40625 5.875.101563 0 .300781.117188.5.21875.699219.398438 1.882813 1.007813 2.78125 1.40625l.625-1.40625c-.699219-.199219-1.519531-.511719-2.21875-.8125v-.09375c1.101563-.601562 1.8125-2.3125 1.8125-5.3125 0-3.101562-.914062-5.6875-3.3125-5.6875zm-.09375 1.5c1.101563 0 1.5 1.988281 1.5 4.1875 0 2.398438-.398437 4.40625-1.5 4.40625-1.199219 0-1.59375-2.007812-1.59375-4.40625 0-2.101562.394531-4.1875 1.59375-4.1875z"/></svg>

<svg xmlns="http://www.w3.org/2000/svg" viewBox="0 0 50 50" width="50" height="50" fill="#666"><path d="M 22 0 C 19.789063 0 18 1.789063 18 4 L 18 20 C 18 22.210938 19.789063 24 22 24 L 37.625 24 L 45.34375 30.75 C 45.640625 31.007813 46.054688 31.066406 46.414063 30.90625 C 46.769531 30.746094 47 30.390625 47 30 L 47 23.8125 C 48.714844 23.363281 50 21.855469 50 20 L 50 4 C 50 1.789063 48.210938 0 46 0 Z M 22 2 L 46 2 C 47.191406 2 48 2.808594 48 4 L 48 20 C 48 21.191406 47.191406 22 46 22 C 45.449219 22 45 22.449219 45 23 L 45 27.8125 L 38.65625 22.25 C 38.476563 22.089844 38.242188 22 38 22 L 22 22 C 20.808594 22 20 21.191406 20 20 L 20 4 C 20 2.808594 20.808594 2 22 2 Z M 33 6.09375 L 30.5 17.59375 L 32.3125 17.59375 L 32.90625 14.59375 L 35.09375 14.59375 L 35.6875 17.59375 L 37.5 17.59375 L 35.09375 6.09375 Z M 34 8 L 34.09375 8 C 34.195313 8.800781 34.300781 9.894531 34.5 10.59375 L 35 13.1875 L 33.09375 13.1875 L 33.59375 10.59375 C 33.695313 9.894531 33.898438 8.800781 34 8 Z M 4 19 C 1.789063 19 0 20.789063 0 23 L 0 39 C 0 40.855469 1.285156 42.363281 3 42.8125 L 3 49 C 3 49.390625 3.230469 49.746094 3.585938 49.90625 C 3.945313 50.066406 4.359375 50.007813 4.65625 49.75 L 12.375 43 L 28 43 C 30.210938 43 32 41.210938 32 39 L 32 25 L 30 25 L 30 39 C 30 40.191406 29.191406 41 28 41 L 12 41 C 11.757813 41 11.523438 41.089844 11.34375 41.25 L 5 46.8125 L 5 42 C 5 41.449219 4.550781 41 4 41 C 2.808594 41 2 40.191406 2 39 L 2 23 C 2 21.808594 2.808594 21 4 21 L 17 21 L 17 19 Z M 15.59375 25 C 13.292969 25 12 27.414063 12 30.8125 C 12 34.710938 13.304688 36.6875 15.40625 36.6875 C 15.507813 36.6875 15.707031 36.804688 15.90625 36.90625 C 16.605469 37.304688 17.789063 37.914063 18.6875 38.3125 L 19.3125 36.90625 C 18.613281 36.707031 17.792969 36.394531 17.09375 36.09375 L 17.09375 36 C 18.195313 35.398438 18.90625 33.6875 18.90625 30.6875 C 18.90625 27.585938 17.992188 25 15.59375 25 Z M 15.5 26.5 C 16.601563 26.5 17 28.488281 17 30.6875 C 17 33.085938 16.601563 35.09375 15.5 35.09375 C 14.300781 35.09375 13.90625 33.085938 13.90625 30.6875 C 13.90625 28.585938 14.300781 26.5 15.5 26.5 Z"/></svg>
